file/merck.svg

<svg clip-rule="evenodd" fill-rule="evenodd" stroke-linejoin="round" stroke-miterlimit="1.41421" viewBox="0 0 560 400" xmlns="http://www.w3.org/2000/svg"><g fill-rule="nonzero" transform="matrix(1.75467 0 0 1.75467 -343.995 -890.645)"><path d="m154.07 30.947c0 11.146 11.632 20.064 23.888 14.099v-6.415c-9.43 6.607-17.64-.015-17.505-7.428.092-4.926 3.403-9.612 9.807-9.977 3.149-.179 5.282.604 7.698 2.917v-6.67c-8.856-5.248-23.888.528-23.888 13.474zm-71.386 14.966h-6.415v-29.942h9.169l6.611 15.498 6.283-15.498h9.277v29.942h-6.875v-20.135l-8.794 20.135-9.256-20.16zm98.101-29.654h6.368v29.654h-6.368zm-69.757-.288h17.276v5.255h-10.579v6.869h10.141v5.124h-10.141v7.618h10.579v5.076h-17.276zm84.116 13.886 11.022 16.056h-7.302l-11.068-16.082 9.533-13.506h7.437zm-52.072-13.886c6.941 0 9.806 5.581 9.806 8.994 0 3.416-1.322 6.834-5.398 8.375l8.795 12.572h-7.164l-11.109-16.086v16.086h-6.721v-29.941zm-2.137 4.982h-2.933v8.737h3.662c2.533 0 4.496-1.97 4.496-4.283 0-1.211-.265-4.454-5.225-4.454z" fill="#231f20" transform="translate(252.036 590.623)"/><path d="m268.006 606.595c0-8.27 6.704-14.972 14.972-14.972 8.271 0 14.972 6.702 14.972 14.972zm0 29.942c0-8.268 6.704-14.972 14.972-14.972-8.268 0-14.972-6.701-14.972-14.97-8.268 0-14.97 6.702-14.97 14.97 0 8.271 6.702 14.972 14.97 14.972m0 0c0 8.271 6.704 14.972 14.972 14.972 8.271 0 14.972-6.701 14.972-14.972zm14.972-14.972c8.271 0 14.972 6.704 14.972 14.972 8.27 0 14.974-6.701 14.974-14.972 0-8.268-6.704-14.97-14.974-14.97 0 8.269-6.701 14.97-14.972 14.97" fill="#007a73"/></g></svg>

<?xml version="1.0" encoding="UTF-8" standalone="no"?>
<!DOCTYPE svg PUBLIC "-//W3C//DTD SVG 1.1//EN" "http://www.w3.org/Graphics/SVG/1.1/DTD/svg11.dtd">
<svg width="100%" height="100%" viewBox="0 0 560 400" version="1.1" xmlns="http://www.w3.org/2000/svg" xmlns:xlink="http://www.w3.org/1999/xlink" xml:space="preserve" xmlns:serif="http://www.serif.com/" style="fill-rule:evenodd;clip-rule:evenodd;stroke-linejoin:round;stroke-miterlimit:1.41421;">
    <g transform="matrix(1.75467,0,0,1.75467,-343.995,-890.645)">
        <g id="path14179" transform="matrix(1,0,0,1,252.036,590.623)">
            <path d="M154.07,30.947C154.07,42.093 165.702,51.011 177.958,45.046L177.958,38.631C168.528,45.238 160.318,38.616 160.453,31.203C160.545,26.277 163.856,21.591 170.26,21.226C173.409,21.047 175.542,21.83 177.958,24.143L177.958,17.473C169.102,12.225 154.07,18.001 154.07,30.947ZM82.684,45.913L76.269,45.913L76.269,15.971L85.438,15.971L92.049,31.469L98.332,15.971L107.609,15.971L107.609,45.913L100.734,45.913L100.734,25.778L91.94,45.913L82.684,25.753L82.684,45.913ZM180.785,16.259L187.153,16.259L187.153,45.913L180.785,45.913L180.785,16.259ZM111.028,15.971L128.304,15.971L128.304,21.226L117.725,21.226L117.725,28.095L127.866,28.095L127.866,33.219L117.725,33.219L117.725,40.837L128.304,40.837L128.304,45.913L111.028,45.913L111.028,15.971ZM195.144,29.857L206.166,45.913L198.864,45.913L187.796,29.831L197.329,16.325L204.766,16.325L195.144,29.857ZM143.072,15.971C150.013,15.971 152.878,21.552 152.878,24.965C152.878,28.381 151.556,31.799 147.48,33.34L156.275,45.912L149.111,45.912L138.002,29.826L138.002,45.912L131.281,45.912L131.281,15.971L143.072,15.971ZM140.935,20.953L138.002,20.953L138.002,29.69L141.664,29.69C144.197,29.69 146.16,27.72 146.16,25.407C146.16,24.196 145.895,20.953 140.935,20.953Z" style="fill:rgb(35,31,32);fill-rule:nonzero;"/>
        </g>
        <path id="path13366" d="M268.006,606.595C268.006,598.325 274.71,591.623 282.978,591.623C291.249,591.623 297.95,598.325 297.95,606.595L268.006,606.595ZM268.006,636.537C268.006,628.269 274.71,621.565 282.978,621.565C274.71,621.565 268.006,614.864 268.006,606.595C259.738,606.595 253.036,613.297 253.036,621.565C253.036,629.836 259.738,636.537 268.006,636.537M268.006,636.537C268.006,644.808 274.71,651.509 282.978,651.509C291.249,651.509 297.95,644.808 297.95,636.537L268.006,636.537ZM282.978,621.565C291.249,621.565 297.95,628.269 297.95,636.537C306.22,636.537 312.924,629.836 312.924,621.565C312.924,613.297 306.22,606.595 297.95,606.595C297.95,614.864 291.249,621.565 282.978,621.565" style="fill:rgb(0,122,115);fill-rule:nonzero;"/>
    </g>
</svg>
